X: 6416
T: Castle, The
R: jig
M: 6/8
K: Aminor
B|:cBA BAG|AGE DB,G,|A,2,A, EDB,|DEG AGE|
cBA BAG|AGE DB,G,|~A,3 EGE|DB,G, A,2B:|
|:cBA a2a|bag edB|GBd g2g|GBd cBA|
cBc dcd|ede gab|age dBG|1 E^FG A2B:|2 E^FG A2||

